X:1
T:Title
%%score 1 { 2 | 3 }
L:1/8
Q:1/4=96
M:4/4
K:Eb
V:1 treble nm="Grand Piano, Soprano"
V:2 bass nm="Choir Pad, The Door of God’s Mercy"
V:3 bass 
V:1
 E2 E2 EE E2 | FGAG- G3/2 z/ z2 | E2 D2 EF F2 | GF E4 z2 | E2 E2 EE E2 | FGBA- A3/2 z/ z2 | %6
w: By~E.~B.~Smith * * * *||||||
 F2 EG- GEDF- | FD E6 | z2 [Ge]2 [Ge][Ge] [Ge]2 | [Bd][Ac] [Ac]2 [GB][GB] [GB]2 | %10
w: ||||
 z [EG] [EG]2 [GB][EG] [EG]2 | [GB][EG] [EG]2 [DF][DF] [DF]2- | [DF][EG] [EG]2 [EG][FA] [GB]2- | %13
w: |||
 [GB][EG] [EG]2 [EG][FA] [GB]2- | [GB][EG] [EG]2 [EG][EG] [EG]2 | [FA][GB] [Bd]2 [Ac][Ac] [FA]2 | %16
w: |||
 z [CF][B,E][EG] z [B,E][B,E][EG] | z [B,E] [B,D]2 [B,F]2 [B,E]2- | [B,E]6 z2 |] %19
w: |||
V:2
 G,2 G,2 G,G, G,2 | A,B,CB,- B,3/2 z/ z2 | G,2 F,2 G,A, A,2 | B,A, G,4 z2 | G,2 G,2 G,G, G,2 | %5
 A,B,DC- C3/2 z/ z2 | A,2 G,B,- B,G,F,A,- | A,F, G,6 | z2 B,2 B,B, B,2 | E[K:treble]E E2 EE E2 | %10
 z[K:bass] B, B,2 EB, B,2 | EB, B,2 B,B, B,2- | B,B, B,2 B,B, B,2- | B,B, B,2 B,B, B,2- | %14
 B,B, B,2 B,B, B,2 | B,B,[K:treble] E2 EE C2 | z A,[K:bass]G,B, z G,G,B, | z G, F,2 A,2 G,2- | %18
 G,6 z2 |] %19
V:3
 E,2 E,4 E,2- | E,2 E,4 z2 | E,2 B,,4 B,,2- | B,,2 E,4 z2 | E,2 E,4 E,2- | E,2 A,,4 z2 | %6
 A,,2 B,,4 B,,2- | B,,2 E,6 | z2 E,2 E,E, E,2 | E,E, E,2 E,E, E,2 | z E, E,2 E,E, E,2 | %11
 E,E, B,,2 B,,B,, B,,2- | B,,E, E,2 E,E, E,2- | E,E, E,2 E,E, E,2- | E,E, E,2 E,E, E,2 | %15
 E,E, A,2 A,A, A,,2 | z A,,B,,B,, z B,,B,,B,, | z B,, B,,2 B,,2 E,2- | E,6 z2 |] %19

